svgs/thin/tenge-sign.svg

<svg xmlns="http://www.w3.org/2000/svg" viewBox="0 0 384 512"><!--! Font Awesome Pro 6.1.1 by @fontawesome - https://fontawesome.com License - https://fontawesome.com/license (Commercial License) Copyright 2022 Fonticons, Inc. --><path d="M0 40C0 35.58 3.582 32 8 32H376C380.4 32 384 35.58 384 40C384 44.42 380.4 48 376 48H8C3.582 48 0 44.42 0 40zM0 168C0 163.6 3.582 160 8 160H376C380.4 160 384 163.6 384 168C384 172.4 380.4 176 376 176H200V472C200 476.4 196.4 480 192 480C187.6 480 184 476.4 184 472V176H8C3.582 176 0 172.4 0 168z"/></svg>

<svg xmlns="http://www.w3.org/2000/svg" viewBox="0 0 384 512"><!--! Font Awesome Pro 6.4.2 by @fontawesome - https://fontawesome.com License - https://fontawesome.com/license (Commercial License) Copyright 2023 Fonticons, Inc. --><path d="M0 40c0-4.4 3.6-8 8-8H376c4.4 0 8 3.6 8 8s-3.6 8-8 8H8c-4.4 0-8-3.6-8-8zM0 168c0-4.4 3.6-8 8-8H192 376c4.4 0 8 3.6 8 8s-3.6 8-8 8H200V472c0 4.4-3.6 8-8 8s-8-3.6-8-8V176H8c-4.4 0-8-3.6-8-8z"/></svg>
